apps/ui-icons/svgs/lock_locked.svg

<svg viewBox="0 0 24 24" width="24" height="24"  fill="none" xmlns="http://www.w3.org/2000/svg">
<path fill-rule="evenodd" clip-rule="evenodd" d="M8 11V8.10448C8 6.1756 9.57687 5 11.5 5C13.4231 5 14.9821 6.1756 14.9821 8.10448L15 11H17.0179L17 8.10448C17 5.28535 14.3107 3 11.5 3C8.68927 3 6 5.28535 6 8.10448L6 11C4.81653 11 4 11.9623 4 13.1493V18.8507C4 20.0377 4.95939 21 6.14286 21H16.8571C18.0406 21 19 20.0377 19 18.8507V13.1493C19 11.9623 18.1835 11 17 11H8ZM13.3214 16.2717C13.3214 17.2213 12.5539 17.9911 11.6072 17.9911C10.6604 17.9911 9.89287 17.2213 9.89287 16.2717C9.89287 15.3221 10.6604 14.5522 11.6072 14.5522C12.5539 14.5522 13.3214 15.3221 13.3214 16.2717Z" fill="#171D26"/>
</svg>

<svg xmlns="http://www.w3.org/2000/svg" width="24" height="24" fill="none" viewBox="0 0 24 24">
  <path fill="#171D26" fill-rule="evenodd" d="M8 11V8.104C8 6.176 9.577 5 11.5 5s3.482 1.176 3.482 3.104L15 11h2.018L17 8.104C17 5.285 14.31 3 11.5 3S6 5.285 6 8.104V11c-1.183 0-2 .962-2 2.15v5.7C4 20.039 4.96 21 6.143 21h10.714A2.146 2.146 0 0 0 19 18.85v-5.7c0-1.188-.817-2.15-2-2.15H8Zm5.321 5.272c0 .95-.767 1.72-1.714 1.72s-1.714-.77-1.714-1.72.767-1.72 1.714-1.72 1.714.77 1.714 1.72Z" clip-rule="evenodd"/>
</svg>
